build/svg/cmd/sc_numberformatstandard.svg

<?xml version="1.0" encoding="UTF-8" standalone="no"?>
<svg
   xmlns:dc="http://purl.org/dc/elements/1.1/"
   xmlns:cc="http://creativecommons.org/ns#"
   xmlns:rdf="http://www.w3.org/1999/02/22-rdf-syntax-ns#"
   xmlns:svg="http://www.w3.org/2000/svg"
   xmlns="http://www.w3.org/2000/svg"
   xmlns:sodipodi="http://sodipodi.sourceforge.net/DTD/sodipodi-0.dtd"
   xmlns:inkscape="http://www.inkscape.org/namespaces/inkscape"
   viewBox="0 0 16 16"
   version="1.1"
   id="svg4"
   sodipodi:docname="sc_numberformatstandard.svg"
   inkscape:version="0.92.5 (2060ec1f9f, 2020-04-08)"
   inkscape:export-filename="/home/jupiter007/Libreoffice yaru theme fullcolor/build/cmd/sc_numberformatstandard.png"
   inkscape:export-xdpi="95"
   inkscape:export-ydpi="95"><metadata
   id="metadata10">
  <rdf:RDF>
    <cc:Work
       rdf:about="">
      <dc:format>image/svg+xml</dc:format>
      <dc:type
         rdf:resource="http://purl.org/dc/dcmitype/StillImage" />
    </cc:Work>
  </rdf:RDF>
</metadata>
<defs
   id="defs8" />
<sodipodi:namedview
   pagecolor="#ffffff"
   bordercolor="#666666"
   borderopacity="1"
   objecttolerance="10"
   gridtolerance="10"
   guidetolerance="10"
   inkscape:pageopacity="0"
   inkscape:pageshadow="2"
   inkscape:window-width="1920"
   inkscape:window-height="1011"
   id="namedview6"
   showgrid="true"
   inkscape:zoom="41.7193"
   inkscape:cx="0.32718756"
   inkscape:cy="7.0296591"
   inkscape:window-x="0"
   inkscape:window-y="32"
   inkscape:window-maximized="1"
   inkscape:current-layer="svg4"
   inkscape:snap-global="true">
  <inkscape:grid
     type="xygrid"
     id="grid829" />
</sodipodi:namedview>



/&gt;<path
   sodipodi:nodetypes="cccscsccccccccscscccccc"
   inkscape:connector-curvature="0"
   id="path4237-1"
   d="M 4.9941691,0.9994341 C 3.7359681,1.0145522 2.8152789,0.9691979 2.0625293,1.38419 1.6861639,1.5916861 1.3892971,1.9435979 1.2246382,2.3822499 1.0599642,2.8209019 1.0000209,3.3418341 1.0000209,3.9994341 v 1.4882655 6.5128664 c 0,0.6576 0.059906,1.17857 0.2246173,1.617185 0.1646741,0.438614 0.4615295,0.788522 0.8378911,0.996094 0.7527194,0.415106 1.6735408,0.371528 2.9316398,0.386721 h 0.002 6.0058619 0.0038 c 1.25819,-0.01512 2.17889,0.03024 2.93164,-0.384793 0.376365,-0.207496 0.673221,-0.55937 0.837891,-0.998022 C 14.939885,13.179061 14.999979,13 14.999979,12.000566 V 5.4662316 3.9994341 c 0,-0.6576 -0.05991,-1.17857 -0.224617,-1.6171842 C 14.610666,1.9436357 14.313811,1.593727 13.937449,1.3861554 13.184681,0.971012 12.263848,1.0146278 11.00576,0.9994341 h -0.002 -6.0058615 z"
   style="font-style:normal;font-variant:normal;font-weight:normal;font-stretch:normal;font-size:15px;line-height:125%;font-family:Ubuntu;-inkscape-font-specification:Ubuntu;text-align:center;letter-spacing:0px;word-spacing:0px;writing-mode:lr-tb;text-anchor:middle;display:inline;opacity:0.6;fill:#000000;fill-opacity:1;stroke:none;stroke-width:0.99980205" />
<path
   inkscape:connector-curvature="0"
   id="path1993"
   d="M 5.9833975,2.0266341 C 4.426818,2.0379727 4.8734056,2.0152956 3.3234553,2.0655633 2.8622282,2.1082719 2.3072688,2.2719255 2.168118,2.7755098 1.9491321,3.4108481 2.0597211,4.1093051 2.0223038,4.7574181 c -0.00794,2.2971225 -0.023055,5.5969749 0.021543,7.8863479 0.039118,0.461934 0.2025449,1.012649 0.6987553,1.163641 0.6324586,0.22526 1.2841474,0.122835 1.9359761,0.154205 1.4242357,0.0076 2.8505629,0.01134 4.2764199,0.01134 1.7045299,3.4e-4 1.4083899,-0.0038 3.1071889,-0.0189 0.511911,-0.01134 1.183699,0.0189 1.584745,-0.405165 0.4211,-0.539793 0.287093,-1.268032 0.322734,-1.903786 0.01172,-2.4443339 0.02759,-5.9116573 -0.02192,-8.3573529 C 13.898459,2.8857208 13.777741,2.4248074 13.372606,2.2432767 12.704435,1.9492294 11.946401,2.0754656 11.246682,2.0376704 9.4922781,2.0263318 7.7378091,2.0263318 5.9833711,2.0263318 Z"
   style="opacity:1;vector-effect:none;fill:#ffffff;fill-opacity:1;stroke:none;stroke-width:1;stroke-linecap:round;stroke-linejoin:bevel;stroke-miterlimit:4;stroke-dasharray:none;stroke-dashoffset:0;stroke-opacity:1"
   sodipodi:nodetypes="cccccccscccccccc" />
<path
   inkscape:connector-curvature="0"
   style="opacity:1;fill:#4d4d4d;fill-opacity:1;stroke:none;stroke-width:8.77999973;stroke-linejoin:round;stroke-miterlimit:4;stroke-dasharray:none;stroke-opacity:1"
   d="M 11,4 C 9.892,4 9,4.892 9,6 v 4 c 0,1.108 0.892,2 2,2 1.108,0 2,-0.892 2,-2 V 6 C 13,4.892 12.108,4 11,4 Z m 0,1 c 0.554,0 1,0.446 1,1 v 4 c 0,0.554 -0.446,1 -1,1 -0.554,0 -1,-0.446 -1,-1 V 6 c 0,-0.554 0.446,-1 1,-1 z"
   id="rect4527"
   sodipodi:nodetypes="ssssssssssssss" />
<path
   style="fill:none;stroke:#4d4d4d;stroke-width:1px;stroke-linecap:round;stroke-linejoin:round;stroke-opacity:1"
   d="m 7.5,5.5 c 0,0 -0.5,-1 -2,-1 -1.5,0 -2,0.5 -2,1.5 0,1 1.1468765,1.5074489 2,2 0.8531235,0.4925511 2,1 2,2 0,1 -0.5,1.5 -2,1.5 -1.5,0 -2,-1 -2,-1"
   id="path836"
   inkscape:connector-curvature="0"
   sodipodi:nodetypes="czzzzzc" />
<rect
   style="opacity:1;fill:#4d4d4d;fill-opacity:1;stroke:none;stroke-width:8.77999973;stroke-linecap:round;stroke-linejoin:round;stroke-miterlimit:4;stroke-dasharray:none;stroke-opacity:1"
   id="rect849"
   width="1"
   height="10"
   x="5"
   y="3"
   ry="0.5" />
</svg>

<svg xmlns="http://www.w3.org/2000/svg" viewBox="0 0 16 16">/&gt;<path d="M4.994 1c-1.258.015-2.179-.03-2.931.384-.377.208-.674.56-.838.998C1.06 2.821 1 3.342 1 4v8.002c0 .657.06 1.178.225 1.617.164.438.461.788.838.996.752.415 1.673.371 2.931.387h6.012c1.258-.016 2.179.03 2.931-.385.377-.208.674-.56.838-.998C14.94 13.179 15 13 15 12V3.999c0-.657-.06-1.178-.225-1.617a1.875 1.875 0 00-.838-.996c-.752-.415-1.673-.371-2.931-.387H4.998z" style="line-height:125%;-inkscape-font-specification:Ubuntu;text-align:center" font-weight="400" font-size="15" font-family="Ubuntu" letter-spacing="0" word-spacing="0" text-anchor="middle" opacity=".6"/><path d="M5.983 2.027c-1.556.011-1.11-.012-2.66.039-.46.042-1.016.206-1.155.71-.219.635-.108 1.333-.146 1.981-.008 2.298-.023 5.597.022 7.887.039.462.202 1.012.699 1.163.632.226 1.284.123 1.936.155 1.424.007 2.85.011 4.276.011 1.705 0 1.408-.004 3.107-.019.512-.011 1.184.019 1.585-.405.421-.54.287-1.268.323-1.904.011-2.444.027-5.912-.022-8.357-.05-.402-.17-.863-.575-1.045-.669-.294-1.427-.168-2.126-.205-1.755-.012-3.51-.012-5.264-.012z" fill="#fff"/><path d="M11 4c-1.108 0-2 .892-2 2v4c0 1.108.892 2 2 2s2-.892 2-2V6c0-1.108-.892-2-2-2zm0 1c.554 0 1 .446 1 1v4c0 .554-.446 1-1 1s-1-.446-1-1V6c0-.554.446-1 1-1z" fill="#4d4d4d"/><path d="M7.5 5.5s-.5-1-2-1-2 .5-2 1.5 1.147 1.507 2 2c.853.493 2 1 2 2s-.5 1.5-2 1.5-2-1-2-1" fill="none" stroke="#4d4d4d" stroke-linecap="round" stroke-linejoin="round"/><rect width="1" height="10" x="5" y="3" ry=".5" fill="#4d4d4d"/></svg>
